chrome/icons/unpin.svg

<svg height="16" viewBox="0 0 1025 1024" width="16" xmlns="http://www.w3.org/2000/svg" xmlns:xlink="http://www.w3.org/1999/xlink">
  <path d="M1024.5,992C1024.5,1000.67 1021.33,1008.17 1015,1014.5C1008.67,1020.83 1001.17,1024 992.5,1024C983.5,1024 975.833,1020.83 969.5,1014.5L648,693L574.5,937C572.5,943.667 568.75,949.167 563.25,953.5C557.75,957.833 551.333,960 544,960C535.333,960 527.833,956.833 521.5,950.5L320,749L45,1024L0,1024L0,978.5L275,704L73.5,502.5C67.1667,496.167 64,488.5 64,479.5C64,472.833 65.8333,467 69.5,462C73.1667,457 78,453.167 84,450.5L313.5,358.5L9.5,54.5C3.16667,48.1667 0,40.6667 0,32C0,23 3.25,15.4167 9.75,9.25C16.25,3.08337 23.8333,0 32.5,0C41.1667,0 48.6667,3.16669 55,9.5L1015,969.5C1021.33,975.833 1024.5,983.333 1024.5,992ZM462.5,326.5L414.5,278.5L508.5,71C516.167,53.6667 527.917,39.9167 543.75,29.75C559.583,19.5834 577,14.5001 596,14.5C608.667,14.5001 620.917,16.9167 632.75,21.75C644.583,26.5834 655,33.5 664,42.5L979,358C988,367 994.917,377.5 999.75,389.5C1004.58,401.5 1007,413.833 1007,426.5C1007,445.5 1001.58,463.083 990.75,479.25C979.917,495.417 965.667,507.167 948,514.5L738,602L689,553L923.5,455C929.5,452.333 934.25,448.417 937.75,443.25C941.25,438.083 943,432.167 943,425.5C943,416.5 940,409 934,403L618.5,88C615.833,85.3334 612.333,83.0834 608,81.25C603.667,79.4167 599.667,78.5 596,78.5C589.667,78.5 583.917,80.25 578.75,83.75C573.583,87.25 569.667,91.8334 567,97.5ZM153,491.5L528.5,867.5L596.5,641.5L362.5,407.5Z" fill="context-fill" fill-opacity="context-fill-opacity">
  </path>
</svg>

<svg xmlns="http://www.w3.org/2000/svg" width="16" height="16" viewBox="0 0 1025 1024"><path fill="context-fill" fill-opacity="context-fill-opacity" d="M1024.5 992c0 8.67-3.17 16.17-9.5 22.5s-13.83 9.5-22.5 9.5c-9 0-16.667-3.17-23-9.5L648 693l-73.5 244q-3 10-11.25 16.5T544 960q-13 0-22.5-9.5L320 749 45 1024H0v-45.5L275 704 73.5 502.5q-9.5-9.5-9.5-23 0-10 5.5-17.5T84 450.5l229.5-92-304-304Q0 45 0 32 0 18.5 9.75 9.25T32.5 0 55 9.5l960 960c6.33 6.333 9.5 13.833 9.5 22.5m-562-665.5-48-48 94-207.5q11.5-26 35.25-41.25T596 14.5q19 0 36.75 7.25T664 42.5L979 358q13.5 13.5 20.75 31.5c4.83 12 7.25 24.333 7.25 37 0 19-5.42 36.583-16.25 52.75Q974.5 503.5 948 514.5L738 602l-49-49 234.5-98q9-4 14.25-11.75T943 425.5q0-13.5-9-22.5L618.5 88q-4-4-10.5-6.75t-12-2.75q-9.5 0-17.25 5.25T567 97.5ZM153 491.5l375.5 376 68-226-234-234Z"/></svg>
